packages/foundations/assets/icons/functional/images/communication/envelope_24.svg

<svg width="24" height="24" viewBox="0 0 24 24" fill="none" xmlns="http://www.w3.org/2000/svg">
<g clip-path="url(#clip0_185_451)">
<path fill-rule="evenodd" clip-rule="evenodd" d="M19.9948 5C21.1246 5 21.9842 5.90878 21.9842 6.98949V16.0281C21.9842 17.6737 20.6579 19 18.9877 19H5.01231C3.3421 19 2.01578 17.6737 2.01578 16.0281V6.98949C2.01578 5.90878 2.89996 5 4.02986 5H19.9948ZM4.02986 8.21755V16.0281C4.02986 16.5685 4.4719 17.0105 5.01231 17.0105H19.0123C19.5772 17.0105 20.0194 16.5685 20.0194 16.0281V8.26663L14.1491 14.1135C13.5271 14.7331 12.7982 15.0947 12.0369 15.0947C11.3 15.0947 10.6026 14.7774 10.0164 14.1923L4.02986 8.21755ZM18.4474 6.98949H5.62629L11.297 12.6911C11.494 12.8886 11.7655 12.9873 12.0123 12.9873C12.2592 12.9873 12.4809 12.9129 12.6541 12.7413L18.4474 6.98949Z" fill="#1A1C1F"/>
</g>
<defs>
<clipPath id="clip0_185_451">
<rect width="24" height="24" fill="white"/>
</clipPath>
</defs>
</svg>

<svg xmlns="http://www.w3.org/2000/svg" width="24" height="24" fill="none"><g clip-path="url(#a)"><path fill="#1A1C1F" fill-rule="evenodd" d="M19.995 5c1.13 0 1.99.909 1.99 1.99v9.038A2.97 2.97 0 0 1 18.987 19H5.012a2.97 2.97 0 0 1-2.996-2.972V6.99C2.016 5.91 2.9 5 4.03 5zM4.03 8.218v7.81c0 .54.442.983.982.983h14a.99.99 0 0 0 1.007-.983V8.267l-5.87 5.847c-.622.62-1.35.98-2.112.98-.737 0-1.434-.317-2.02-.902zm14.417-1.229H5.627l5.67 5.702c.197.198.468.296.715.296a.88.88 0 0 0 .642-.246z" clip-rule="evenodd"/></g><defs><clipPath id="a"><path fill="#fff" d="M0 0h24v24H0z"/></clipPath></defs></svg>
